!!!COM: Anon.
!!!OTL: Novus Adam Natus Est
!!!SCA: Folio 307-307'
!!!YOR: from 'Thirty-Five Conductus for Two and Three Voices', pp.8-10
!!!YOR: edited by Janet Knapp, Collegium Musicum No. 6, Yale University (1965)
!!!YOR: from the School of Notre Dame; circa 1170-1240
!!!YOO: Yale University
!!!YOY: 1965
**kern	**kern
*M6/8	*M6/8
=1	=1
4.A	4.d
4.c	4.c
=2	=2
4.c	4d
.	8c
4.d	4.G
=3	=3
4.c	4.F
8d	8G
8d	8G
8c	8F
=4	=4
4.A	4.D
4.r	4.r
=5	=5
4c	4F
8B-	8G
4A	4A
8F	8B-
=6	=6
4G	4c
8A	8d
4F	4c
8r	8r
=7	=7
4G	4.B-
8B-	.
4A	4.A
8F	.
=8	=8
4G	4.G
8A	.
4D	4A
8r	8r
=9	=9
4F	4F
8E	8G
4.D	4.A
=10	=10
4.C	4.B-
4D	4A
8r	8r
=11	=11
4.F	4.F
4.G	4.E
=12	=12
4A	4.D
8G	.
4F	4.C
8E	.
=13	=13
4.D	4.D
4D	4E
8E	8F
=14	=14
4.C	4G
.	8F
4.r	4E
.	8D
=15	=15
4.B-	4.D
4G	4.C
8B-	.
=16	=16
4.A	4.D
4F	4.r
8r	.
=17	=17
4.B-	4.D
4G	4.C
8B-	.
=18	=18
4.A	4.D
4D	4.r
8r	.
=19	=19
4.B-	4.D
4G	4.C
8B-	.
=20	=20
4A	4.D
8D	.
4F	4.F
8G	.
=21	=21
4A	4.D
8G	.
4.E	4F
.	8G
=22	=22
4.D	4.A
4.D	4A
.	8B-
=23	=23
[2.C	16c
.	16B-
.	16A
.	16G
.	16F
.	16E
.	4.D
=24	=24
4.C]	4.E
4D;	4D;
8r	8r
=25	=25
4.F	4c
.	8d
4F	4f
8G	8e
=26	=26
4.F	4.c
4D	4d
8r	8r
=27	=27
4F	4c
8A	8B
4G	4G
8F	8F
=28	=28
4.E	4.G
4D	4A
8r	8r
=29	=29
4.A	4c
.	8d
4A	4c
8B	8B
=30	=30
4.A	4.c
4G	4d
8r	8r
=31	=31
4c	4c
8c	8A
4c	4F
8B	8E
=32	=32
4.c	4.F
4d	4G
8r	8r
=33	=33
4c	4f
8B	8e
4c	4f
8d	8d
=34	=34
4c	4c
8A	8A
4F	4c
8r	8r
=35	=35
4F	4c
8G	8B
4A	4A
8B	8G
=36	=36
4A	4c
8G	8B
4F	4A
8E	8G
=37	=37
4.D	4.F
4.C	4.E
=38	=38
4.D	4.D
4.r	4.r
=39	=39
4.F	4.c
4.E	4.B
=40	=40
4.F	4.A
4G	4.G
8F	.
=41	=41
4F	4A
8E	8G
4.D	4A
.	8B
=42	=42
4.F	4.A
4.G	4.G
=43	=43
4F	4F
8E	8E
4.C	4.F
=44	=44
4.D	4D
.	8E
4D	4.F
8E	.
=45	=45
4.C	4.G
4.r	4.r
=46	=46
4.F	4F
.	8E
4F	4D
8G	8C
=47	=47
4F	4.F
8E	.
4D	4G
8C	8A
=48	=48
4.F	4.F
4F	4F
8G	8E
=49	=49
4.A	4.D
4.r	4.r
=50	=50
4.c	4.F
4c	4F
8d	8G
=51	=51
4c	4.F
8B	.
4A	4F
8G	8G
=52	=52
4B-	4F
8A	8E
4B-	4D
8c	8C
=53	=53
4.A	4.D
4.r	4.r
=54	=54
4d	4.d
8c	.
4A	4e
8G	8d
=55	=55
4F	4c
8E	8B
4.F	4.A
=56	=56
4.G	4G
.	8F
8F	4.G
8E	.
8D	.
=57	=57
4.D	4.A
4.r	4.r
=58	=58
4.F	4.f
4.G	4e
.	8c
=59	=59
4.A	4.A
4.B-	4.F
=60	=60
4A	4G
8F	8F
4G	4.G
8A	.
=61	=61
4.D	4.A
4.r	4.r
=62	=62
4.F	4B-
.	8A
4G	4.G
8F	.
=63	=63
4E	4.A
8D	.
4.C	4c
.	8G
=64	=64
4.F	4.F
4.r	4.r
=65	=65
4.F	4.c
4G	4.G
8F	.
=66	=66
4E	4B
8D	8A
4.C	4.G
=67	=67
4.F	4.F
4.r	4.r
=68	=68
4.F	4.B-
4G	4.G
8F	.
=69	=69
4E	4c
8D	8B-
4.C	4A
.	8G
=70	=70
4.D	4.F
4.r	4.r
=71	=71
4.A	4.A
4B	4.r
8c	.
=72	=72
4.c	4.A
4A	4B
8F	8c
=73	=73
8G	4.c
8F	.
8E	.
4.D	4.r
=74	=74
4.F	4c
.	8B
4.r	4A
.	8G
=75	=75
4.F	4F
.	8E
4G	4D
8A	8C
=76	=76
4.A	4.D
4c	4.r
8A	.
=77	=77
4F	4.F
8G	.
4F	4G
8E	8A
=78	=78
4.D	4.A
4D	4.r
8C	.
=79	=79
4.D	4.a
4D	4.r
8E	.
=80	=80
4.C	4.c
4C	4.r
8D	.
=81	=81
4F	4.c
8G	.
4F	4c
8E	8B
=82	=82
4.D	4A
.	8G
4D	4F
8C	8E
=83	=83
4.D	4.D
4.r	4.r
=84	=84
4A	4A
8B	8B
4A	4c
8G	8B
=85	=85
4.A	4.c
4G	4d
8r	8r
=86	=86
4F	4f
8E	8e
4D	4d
8C	8c
=87	=87
4.G	4d
.	8e
4F	4f
8r	8r
=88	=88
4E	4e
8D	8d
4C	4e
8D	8d
=89	=89
4.E	4.c
4D	4d
8r	8r
=90	=90
4F	4c
8G	8B
4A	4A
8G	8G
=91	=91
4.F	4.A
4E	4G
8r	8r
=92	=92
4.F	4F
.	8E
4G	4D
8F	8C
=93	=93
4.E	4.G
4D	4F
8r	8r
=94	=94
4.F	4E
.	8D
4E	4C
8D	8D
=95	=95
4.C	4.E
4D	4D
8r	8r
=96	=96
4.F	4.F
4F	4G
8E	8A
=97	=97
4.D	4A
.	8B
[4.C	16c
.	16B
.	16A
.	16G
.	16F
.	16E
=98	=98
2.C]	4.D
.	4.E
=99	=99
4.D	4.D
4.r	4.r
==	==
*-	*-
!!!ENC: David Huron
!!!YEC: Copyright 1987, David Huron
!!!EEV: 1.0
